X: 39160
T: Sweets Of May, The
R: jig
M: 6/8
K: Gmajor
|:d2 c|B2 G A2 D|G2 G Gdc|BdB GAB|cBc Adc|
B2 G ADD|GAG G2 A|B2 B cAF|G3:|
|:G2 A|ABA A2 G|E2 F G3|ABA c2 d|e2 d c2 B|
A2 A A2 G|E2 F GFG|A2 A BAG|A3:|
A2 c|d3 d^cd|D3 D^CD|c3 cBc|D3 DED|
G3 G2 A|B3 B2 c|d2 d DEF|G3 G2 ^c|
d2 d dBG|D3 D^CD|c2 c cAF|D2 D DEF|
GDG G2 A|BGB B2 c|d^cd =cAF|G3||

